apps/filecoin-site/public/assets/logos/MIT-open-learning-logo.svg

<svg width="100%" height="100%" fill="none" viewBox="0 0 157 40" xmlns="http://www.w3.org/2000/svg">
<path d="M36.6218 36.3259H44.6286V12.3052H36.6218V36.3259ZM48.6321 8.3018H68.6493V0.294922H48.6321V8.3018ZM36.6218 0.294922H44.6286V8.3018H36.6218V0.294922ZM24.6115 36.3259H32.6183V0.294922H24.6115V36.3259ZM12.6011 28.319H20.608V0.294922H12.6011V28.319ZM0.59082 36.3259H8.5977V0.294922H0.59082V36.3259ZM48.6321 36.3259H56.639V12.3052H48.6321V36.3259Z" fill="#9F9FA9"/>
<path d="M77.811 21.3125H80.8556V33.7849H87.9108V36.3256H77.811V21.3125Z" fill="#9F9FA9"/>
<path d="M88.582 30.929C88.582 27.7374 90.7448 25.2598 93.8943 25.2598C97.3589 25.2598 99.2067 27.9054 99.2067 31.7479H91.3956C91.6056 33.4067 92.5295 34.4356 94.1463 34.4356C95.2592 34.4356 95.9101 33.9317 96.2251 33.1127H99.0387C98.6397 35.0235 96.939 36.6403 94.1673 36.6403C90.5978 36.6403 88.582 34.1416 88.582 30.929ZM91.4377 29.7742H96.2251C96.1411 28.4094 95.2382 27.4645 93.9364 27.4645C92.4245 27.4645 91.6897 28.3674 91.4377 29.7742Z" fill="#9F9FA9"/>
<path d="M106.975 35.129H106.933C106.387 35.9479 105.61 36.5778 103.762 36.5778C101.558 36.5778 100.004 35.423 100.004 33.2812C100.004 30.9085 101.936 30.1526 104.329 29.8166C106.114 29.5647 106.933 29.4177 106.933 28.5988C106.933 27.8219 106.324 27.318 105.127 27.318C103.783 27.318 103.133 27.8009 103.049 28.8297H100.508C100.592 26.94 101.999 25.2812 105.148 25.2812C108.382 25.2812 109.684 26.73 109.684 29.2498V34.7301C109.684 35.5489 109.81 36.0319 110.062 36.2208V36.3258H107.311C107.143 36.1159 107.038 35.6119 106.975 35.129ZM106.996 32.5253V30.9085C106.492 31.2025 105.715 31.3704 105.001 31.5384C103.51 31.8744 102.776 32.2104 102.776 33.2182C102.776 34.2261 103.447 34.583 104.455 34.583C106.093 34.583 106.996 33.5752 106.996 32.5253Z" fill="#9F9FA9"/>
<path d="M114.24 27.2755H114.303C114.954 26.0577 115.689 25.4277 116.949 25.4277C117.264 25.4277 117.453 25.4488 117.621 25.5118V28.0105H117.558C115.689 27.8215 114.345 28.8083 114.345 31.0761V36.3254H111.49V25.5537H114.24L114.24 27.2755Z" fill="#9F9FA9"/>
<path d="M121.652 27.0235H121.715C122.45 25.8687 123.437 25.2598 124.907 25.2598C127.132 25.2598 128.623 26.9395 128.623 29.2913V36.3254H125.768V29.7112C125.768 28.5563 125.096 27.7374 123.899 27.7374C122.639 27.7374 121.715 28.7454 121.715 30.2152V36.3254H118.859V25.5537H121.652L121.652 27.0235Z" fill="#9F9FA9"/>
<path d="M130.387 21.3125H133.242V23.8742H130.387V21.3125ZM130.387 25.5539H133.242V36.3256H130.387V25.5539Z" fill="#9F9FA9"/>
<path d="M137.882 27.0235H137.945C138.68 25.8687 139.667 25.2598 141.137 25.2598C143.363 25.2598 144.854 26.9395 144.854 29.2913V36.3254H141.998V29.7112C141.998 28.5563 141.326 27.7374 140.129 27.7374C138.869 27.7374 137.945 28.7454 137.945 30.2152V36.3254H135.09V25.5537H137.882L137.882 27.0235Z" fill="#9F9FA9"/>
<path d="M146.323 36.6403H149.158C149.389 37.3123 149.998 37.8372 151.321 37.8372C152.937 37.8372 153.714 37.0603 153.714 35.5904V34.4146H153.651C153.021 35.1285 152.203 35.6744 150.838 35.6744C148.444 35.6744 146.092 33.7846 146.092 30.5301C146.092 27.3175 148.024 25.2598 150.754 25.2598C152.098 25.2598 153.084 25.7847 153.735 26.6876H153.777V25.5537H156.528V35.5065C156.528 37.0183 156.045 38.0472 155.247 38.7821C154.344 39.622 152.958 39.9999 151.363 39.9999C148.423 39.9999 146.617 38.74 146.323 36.6403ZM153.861 30.4671C153.861 28.8923 153.021 27.5485 151.3 27.5485C149.851 27.5485 148.885 28.6824 148.885 30.4881C148.885 32.3149 149.851 33.3857 151.321 33.3857C153.126 33.3857 153.861 32.0629 153.861 30.4671Z" fill="#9F9FA9"/>
<path d="M77.1597 7.83203C77.1597 3.33862 79.9733 0 84.4037 0C88.8342 0 91.6269 3.33862 91.6269 7.83203C91.6269 12.3255 88.8342 15.643 84.4037 15.643C79.9733 15.643 77.1597 12.3255 77.1597 7.83203ZM88.5192 7.83203C88.5192 4.8294 87.1754 2.4987 84.4248 2.4987C81.6741 2.4987 80.2673 4.8294 80.2673 7.83203C80.2673 10.8136 81.6741 13.1443 84.4248 13.1443C87.1754 13.1443 88.5192 10.8136 88.5192 7.83203Z" fill="#9F9FA9"/>
<path d="M93.0547 4.53614H95.8053V5.87999H95.8684C96.5612 4.93513 97.5691 4.24219 99.0389 4.24219C101.895 4.24219 103.721 6.57289 103.721 9.93247C103.721 13.418 101.832 15.6228 99.0599 15.6228C97.5481 15.6228 96.5612 15.0138 95.9523 14.0899H95.9103V18.8353H93.0547V4.53614ZM100.824 10.0164C100.824 7.97975 100.11 6.55192 98.346 6.55192C96.5612 6.55192 95.8473 8.08474 95.8473 10.0164C95.8473 11.9692 96.7502 13.25 98.451 13.25C99.8999 13.25 100.824 12.0532 100.824 10.0164Z" fill="#9F9FA9"/>
<path d="M104.519 9.91146C104.519 6.71986 106.682 4.24219 109.831 4.24219C113.296 4.24219 115.144 6.88786 115.144 10.7304H107.333C107.543 12.3891 108.467 13.418 110.083 13.418C111.196 13.418 111.847 12.9141 112.162 12.0951H114.976C114.577 14.0059 112.876 15.6227 110.104 15.6227C106.535 15.6228 104.519 13.124 104.519 9.91146ZM107.375 8.75661H112.162C112.078 7.39179 111.175 6.44693 109.873 6.44693C108.362 6.44693 107.627 7.34981 107.375 8.75661Z" fill="#9F9FA9"/>
<path d="M119.259 6.00595H119.322C120.057 4.85111 121.044 4.24219 122.514 4.24219C124.739 4.24219 126.23 5.92193 126.23 8.2737V15.3078H123.374V8.69361C123.374 7.53877 122.703 6.71987 121.506 6.71987C120.246 6.71987 119.322 7.72778 119.322 9.19759V15.3078H116.466V4.53614H119.259L119.259 6.00595Z" fill="#9F9FA9"/>
</svg>

<svg xmlns="http://www.w3.org/2000/svg" fill="currentColor" viewBox="0 0 157 40"><path fill="#9F9FA9" d="M36.622 36.326h8.007v-24.02h-8.007v24.02Zm12.01-28.024H68.65V.295H48.632v8.007ZM36.622.295h8.007v8.007h-8.007V.295Zm-12.01 36.03h8.006V.296h-8.007v36.03Zm-12.01-8.006h8.006V.295h-8.007v28.024ZM.59 36.326h8.007V.295H.59v36.03Zm48.041 0h8.007v-24.02h-8.007v24.02ZM77.811 21.313h3.045v12.472h7.055v2.54h-10.1V21.313ZM88.582 30.929c0-3.192 2.163-5.67 5.312-5.67 3.465 0 5.313 2.646 5.313 6.489h-7.811c.21 1.659 1.133 2.688 2.75 2.688 1.113 0 1.764-.504 2.08-1.323h2.813c-.4 1.91-2.1 3.527-4.872 3.527-3.57 0-5.585-2.498-5.585-5.711Zm2.856-1.155h4.787c-.084-1.365-.987-2.31-2.289-2.31-1.512 0-2.246.903-2.498 2.31ZM106.975 35.129h-.042c-.546.819-1.323 1.449-3.171 1.449-2.204 0-3.758-1.155-3.758-3.297 0-2.372 1.932-3.128 4.325-3.464 1.785-.252 2.604-.4 2.604-1.218 0-.777-.609-1.281-1.806-1.281-1.344 0-1.994.483-2.078 1.512h-2.541c.084-1.89 1.491-3.549 4.64-3.549 3.234 0 4.536 1.449 4.536 3.969v5.48c0 .819.126 1.302.378 1.49v.106h-2.751c-.168-.21-.273-.714-.336-1.197Zm.021-2.604V30.91c-.504.294-1.281.461-1.995.63-1.491.335-2.225.671-2.225 1.68 0 1.007.671 1.364 1.679 1.364 1.638 0 2.541-1.008 2.541-2.058ZM114.24 27.276h.063c.651-1.218 1.386-1.848 2.646-1.848.315 0 .504.02.672.084v2.498h-.063c-1.869-.189-3.213.798-3.213 3.066v5.25h-2.855V25.553h2.75v1.722ZM121.652 27.023h.063c.735-1.154 1.722-1.763 3.192-1.763 2.225 0 3.716 1.68 3.716 4.031v7.034h-2.855v-6.614c0-1.155-.672-1.974-1.869-1.974-1.26 0-2.184 1.008-2.184 2.478v6.11h-2.856V25.554h2.793v1.47ZM130.387 21.313h2.855v2.561h-2.855v-2.561Zm0 4.24h2.855v10.773h-2.855V25.554ZM137.882 27.023h.063c.735-1.154 1.722-1.763 3.192-1.763 2.226 0 3.717 1.68 3.717 4.031v7.034h-2.856v-6.614c0-1.155-.672-1.974-1.869-1.974-1.26 0-2.184 1.008-2.184 2.478v6.11h-2.855V25.554h2.792v1.47ZM146.323 36.64h2.835c.231.672.84 1.197 2.163 1.197 1.616 0 2.393-.777 2.393-2.247v-1.175h-.063c-.63.714-1.448 1.26-2.813 1.26-2.394 0-4.746-1.89-4.746-5.145 0-3.213 1.932-5.27 4.662-5.27 1.344 0 2.33.525 2.981 1.428h.042v-1.134h2.751v9.953c0 1.511-.483 2.54-1.281 3.275-.903.84-2.289 1.218-3.884 1.218-2.94 0-4.746-1.26-5.04-3.36Zm7.538-6.173c0-1.575-.84-2.918-2.561-2.918-1.449 0-2.415 1.133-2.415 2.94 0 1.826.966 2.897 2.436 2.897 1.805 0 2.54-1.323 2.54-2.919ZM77.16 7.832C77.16 3.339 79.973 0 84.404 0c4.43 0 7.223 3.339 7.223 7.832 0 4.494-2.793 7.811-7.223 7.811s-7.244-3.318-7.244-7.811Zm11.36 0c0-3.003-1.345-5.333-4.095-5.333s-4.158 2.33-4.158 5.333c0 2.982 1.407 5.312 4.158 5.312 2.75 0 4.094-2.33 4.094-5.312ZM93.055 4.536h2.75V5.88h.063c.693-.945 1.701-1.638 3.17-1.638 2.857 0 4.683 2.33 4.683 5.69 0 3.486-1.889 5.69-4.661 5.69-1.512 0-2.499-.608-3.108-1.532h-.042v4.745h-2.855V4.536Zm7.769 5.48c0-2.036-.714-3.464-2.478-3.464-1.785 0-2.499 1.533-2.499 3.464 0 1.953.903 3.234 2.604 3.234 1.449 0 2.373-1.197 2.373-3.234ZM104.519 9.911c0-3.191 2.163-5.669 5.312-5.669 3.465 0 5.313 2.646 5.313 6.488h-7.811c.21 1.66 1.134 2.688 2.75 2.688 1.113 0 1.764-.504 2.079-1.323h2.814c-.399 1.91-2.1 3.528-4.872 3.528-3.569 0-5.585-2.499-5.585-5.712Zm2.856-1.154h4.787c-.084-1.365-.987-2.31-2.289-2.31-1.511 0-2.246.903-2.498 2.31ZM119.259 6.006h.063c.735-1.155 1.722-1.764 3.192-1.764 2.225 0 3.716 1.68 3.716 4.032v7.034h-2.856V8.694c0-1.155-.671-1.974-1.868-1.974-1.26 0-2.184 1.008-2.184 2.478v6.11h-2.856V4.536h2.793v1.47Z"/></svg>
